!!!Melodie: eigene
!!!Typ: Lied
**kern	**silbe	**silbe	**silbe	**silbe	**silbe	**silbe	**silbe	**silbe
*clefG2	*lang:DE	*lang:DE	*lang:DE	*lang:DE	*lang:DE	*lang:DE	*lang:DE	*lang:DE
*M4/4	*	*	*	*	*	*	*	*
*met(c)	*	*	*	*	*	*	*	*
4r	%	%	%	%	%	%	%	%
4cc	Ein’	er	Mit	es	Und	so	Das	er
4cc	fe#	hilft	uns#	streit'	wenn	fürch#	Wort	ist
4cc	#ste	uns	#'rer	für	die	#ten	sie	bei
=	=	=	=	=	=	=	=	=
8Lg	Burg	frei	Macht	uns	Welt	wir	sol#	uns
8Ja	|	|	|	|	|	|	|	|
4b	ist	aus	ist	der	voll	uns	#len	wohl
8Lcc	un#	al#	nichts	rech#	Teu#	nicht	las#	auf
8Jb	|	|	|	|	|	|	|	|
4a	#ser	#ler	ge#	#te	#fel	so	#sen	dem
=	=	=	=	=	=	=	=	=
4;g	Gott,	Not,	#tan,	Mann	wär’	sehr,	stahn,	Plan
4cc	ein’	die	wir	den	und	es	und	mit
4b	gu#	uns	sind	Gott	wollt'	muss	kein’	sei#
4a	#te	jetzt	gar	selbst	uns	uns	Dank	#nem
=	=	=	=	=	=	=	=	=
4g	Wehr	hat	bald	hat	gar	doch	da#	Geist
8La	und	be#	ver#	er#	ver#	ge#	#zu	und
8Jg	|	|	|	|	|	|	|	|
(8Lf	Waf#	#trof#	#lo#	#ko#	#schling#	#ling#	ha#	Ga#
8Je	|	|	|	|	|	|	|	|
4d)	|	|	|	|	|	|	|	|
=	=	=	=	=	=	=	=	=
1;c	#fen,	#fen.	#ren:	#ren.	#en,	#en.	#ben;	#ben.
=:|	=	=	=	=	=	=	=	=
4r	.	%	.	%	.	%	.	%
4c	.	Der	.	Fragst	.	Der	.	Neh#
4g	.	alt’	.	du:	.	Fürst	.	#men
4a	.	bö#	.	wer	.	die#	.	sie
=	=	=	=	=	=	=	=	=
4g	.	#se	.	er	.	#ser	.	den
4f#	.	Feind	.	ist?	.	Welt,	.	Leib,
2;g	.	mit	.	Er	.	wie	.	Gut,
=	=	=	=	=	=	=	=	=
4c	.	Ernst	.	heißt	.	sau’r	.	Ehr’,
4g	.	er's	.	Je#	.	er	.	Kind
4a	.	jetzt	.	#sus	.	sich	.	und
4b	.	meint,	.	Christ,	.	stellt,	.	Weib:
=	=	=	=	=	=	=	=	=
4;cc	.	groß’	.	der	.	tut	.	lass
4b	.	Macht	.	Herr	.	er	.	fah#
4cc	.	und	.	Ze#	.	uns	.	#ren
4b	.	viel	.	#ba#	.	doch	.	da#
=	=	=	=	=	=	=	=	=
2a	.	List	.	#oth,	.	nichts,	.	#hin,
4;g	.	sein’	.	und	.	das	.	sie
4a	.	grau#	.	ist	.	macht,	.	ha#
=	=	=	=	=	=	=	=	=
4a	.	#saum'	.	kein	.	er	.	#ben's
4g	.	Rü#	.	and#	.	ist	.	kein
8La	.	#stung	.	#'rer	.	ge#	.	Ge#
8Jg	.	|	.	|	.	|	.	|
4f	.	ist,	.	Gott;	.	#richt;	.	#winn,
=	=	=	=	=	=	=	=	=
4;e	.	auf	.	das	.	ein	.	das
4cc	.	Erd’	.	Feld	.	Wört#	.	Reich
4b	.	ist	.	muss	.	#lein	.	Gott’s
4a	.	nicht	.	er	.	kann	.	muss
=	=	=	=	=	=	=	=	=
4g	.	sein’s	.	be#	.	ihn	.	uns
(8La	.	Glei#	.	#hal#	.	fäl#	.	blei#
8Jg	.	|	.	|	.	|	.	|
8Lf	.	|	.	|	.	|	.	|
8Je	.	|	.	|	.	|	.	|
4d)	.	|	.	|	.	|	.	|
=	=	=	=	=	=	=	=	=
1;c	.	#chen.	.	#ten.	.	#len.	.	#ben.
==	==	==	==	==	==	==	==	==
*-	*-	*-	*-	*-	*-	*-	*-	*-
